src/telerik-icons/solid/align-center.svg

<?xml version="1.0" encoding="utf-8"?>
<svg xmlns="http://www.w3.org/2000/svg" width="512" height="512" viewBox="0 0 512 512">
  <path d="M448 96H64V64h384v32zm-64 64H128v-32h256v32zm64 64H64v-32h384v32zm-64 64H128v-32h256v32zm64 64H64v-32h384v32zm-64 64H128v-32h256v32z"/>
</svg>

<?xml version="1.0" encoding="utf-8"?>
<!-- Generator: Adobe Illustrator 19.2.1, SVG Export Plug-In . SVG Version: 6.00 Build 0)  -->
<svg xmlns="http://www.w3.org/2000/svg" width="512" height="512" viewBox="0 0 512 512">
<path d="M448,96H64V64h384V96z M384,160H128v-32h256V160z M448,224H64v-32h384V224z M384,288H128v-32h256V288z M448,352H64v-32h384
	V352z M384,416H128v-32h256V416z" />
</svg>
